assets/svg/cross-black.svg

<svg height="13" viewBox="0 0 14 13" width="14" xmlns="http://www.w3.org/2000/svg"><path d="m289 38.3400294 5.090029-5.0900294 1.13365 1.1336496-5.090029 5.0900294 5.090029 5.0900295-1.13365 1.1336496-5.090029-5.0900294-5.090029 5.0900294-1.13365-1.1336496 5.090029-5.0900295-5.090029-5.0900294 1.13365-1.1336496z" fill="#111" fill-rule="evenodd" transform="translate(-282 -33)"/></svg>

<?xml version="1.0" encoding="UTF-8"?>
<svg width="14px" height="13px" viewBox="0 0 14 13" version="1.1" xmlns="http://www.w3.org/2000/svg" xmlns:xlink="http://www.w3.org/1999/xlink">
    <!-- Generator: Sketch 48.1 (47250) - http://www.bohemiancoding.com/sketch -->
    <title>Combined Shape</title>
    <desc>Created with Sketch.</desc>
    <defs></defs>
    <g id="Mobile-Menu-Searching" stroke="none" stroke-width="1" fill="none" fill-rule="evenodd" transform="translate(-282.000000, -33.000000)">
        <path d="M289,38.3400294 L294.090029,33.25 L295.223679,34.3836496 L290.13365,39.473679 L295.223679,44.5637085 L294.090029,45.6973581 L289,40.6073287 L283.909971,45.6973581 L282.776321,44.5637085 L287.86635,39.473679 L282.776321,34.3836496 L283.909971,33.25 L289,38.3400294 Z" id="Combined-Shape" fill="#111111"></path>
    </g>
</svg>
